X: 150
T: Da qiuqian
L: 1/8
M: 2/4
K: Bb
d'2d' c' [I:setbarnb 1]| 
d'2d'2 | 
d' f' d' d'/ c'/ | 
d' d'/ c'/b2 | 
d'/ f'/ g b3/ c'/ | 
d' d'/ d'< c' d'/ | 
c' b g f | 
d4 | 
f> gb2 | 
c' a g f | 
d f f f/ c/ | 
d4 | 
b> b g/ b/ g/ b/ | 
d fd2 | 
c'> bc'2 | 
b> c' d' f' | 
d' c' b d' | 
c' bg2 | 
b> g f d | 
f4 |]

@@@ Tune index: 9024
